rospo-newyear-dark/symbolic/mimetypes/package-x-generic-symbolic.svg

<svg height="16" width="16" xmlns="http://www.w3.org/2000/svg"><path d="m8 0-7 3.5v9l7 3.5 7-3.5v-9zm0 2.25 5 2.5v6.5l-5 2.5v-6.75l-5-2.25z" fill="#d3dae3"/></svg>

<svg xmlns="http://www.w3.org/2000/svg" width="16" height="16" version="1.1">
 <path style="fill:#d3dae3" d="M 8,0 1,3.5 V 12.5 L 8,16 15,12.5 V 3.5 Z M 8,2.25 13,4.75 V 11.25 L 8,13.75 V 7 L 3,4.75 Z"/>
</svg>
